X:01
x:1
T: Sally in the Garden as played by the Jon Bekoff
N: Larry Moss
M:4/4
K:Am
L: 1/4
I A/2B/2 A/2G/2  E/2G/2A/2B/2   | c c B B | A/2B/2  A/2G/2 E/2D/2E/2F/2  |   G B G B  |  A/2B/2 A/2G/2  E/2G/2A/2B/2 | c  [ec] [ec]2 |A/2B/2A/2G/2 E/2D/2E/2F/2 | G/2A/2B/2A/2 A2
A3/2 B/ c/2B/2c/2d/2   | e d e3/2 d/2 | c B c d  e/2d/2c/2B/2 | A3/2 B/2 c/2d/2 e f |  g/2a/2b/2a/2  g d | e/2g/2e/2d/2 | c A A2 |


I A/2B/2 A/2G/2  E/2G/2A/2B/2   | c c B B | A/2B/2  A/2G/2 E/2D/2E/2F/2  |   G B G B  |  A/2B/2 A/2G/2  E/2G/2A/2B/2 | c  [ec] [ec]2 | e d/2c/2 A G/2E/2 | E/2A/2A/2B/2 A2 |
|A/2B/2A/2G/2 E/2D/2E/2F/2 | G/2A/2B/2A/2 A2
c c/2B/2 c/2B/2c/2d/2 | e e/2f/2 e/2d/2c/2d/2 | c c/2B/2 c/2B/2c/2d/2 | e e/2f/2 e/2d/2c/2d/2
A3/2 B/ c/2B/2c/2d/2   | e d e3/2 d/2 | c B c d  e/2d/2c/2B/2 | A3/2 B/2 c/2d/2 e f |  g/2a/2b/2a/2  g d | e/2g/2e/2d/2 | c A A2 |

